X: 1
T: Engelska
T: Anglais
M: 2/4
L: 1/16
Z: 2010 John Chambers <jc:trillian.mit.edu>
S: handwritten MS of unknown origin, with illegible scribble at upper right
%%slurgraces
K: D
{AB}AG "A"\
| "D"F2A2 d2e2 | f2a2 "A7"gagf | dfed cdcB | ABAG "D"F2A2 \
| "D"d2e2 f2a2 | "A7"gagf efed | cABc dfec | "D"(c2d2) d2 :|
dc "B"\
| "Bm"B2Bc d2dc | B2F2 F4 | "G"B2Bc d2dc | "D"B2f2 f2z2 \
| "G"B2Bc d2dc | "Bm"B2F2 F4 | "G"B2Bc d2dc | "D"B2f2 "A7"fedc "d.C."y|]
